static/img/kroki/3ff46846b81d9a7f667efe8e0e5302e4.svg

<?xml version="1.0" encoding="us-ascii" standalone="no"?><svg xmlns="http://www.w3.org/2000/svg" xmlns:xlink="http://www.w3.org/1999/xlink" contentStyleType="text/css" height="374px" preserveAspectRatio="none" style="width:430px;height:374px;" version="1.1" viewBox="0 0 430 374" width="430px" zoomAndPan="magnify"><defs/><g><!--class digitalocean_container_registry_repository--><g id="elem_digitalocean_container_registry_repository"><rect codeLine="23" fill="#3D176E" height="39.7891" id="digitalocean_container_registry_repository" rx="2.5" ry="2.5" style="stroke:#000D19;stroke-width:0.5;" width="397" x="7" y="328.58"/><ellipse cx="22" cy="348.4745" fill="#ADD1B2" rx="11" ry="11" style="stroke:#181818;stroke-width:1.0;"/><path d="M24.9688,354.1152 Q24.3906,354.412 23.75,354.5527 Q23.1094,354.7089 22.4063,354.7089 Q19.9063,354.7089 18.5781,353.0683 Q17.2656,351.412 17.2656,348.287 Q17.2656,345.162 18.5781,343.5058 Q19.9063,341.8495 22.4063,341.8495 Q23.1094,341.8495 23.75,342.0058 Q24.4063,342.162 24.9688,342.4589 L24.9688,345.1777 Q24.3438,344.5995 23.75,344.3339 Q23.1563,344.0527 22.5313,344.0527 Q21.1875,344.0527 20.5,345.1308 Q19.8125,346.1933 19.8125,348.287 Q19.8125,350.3808 20.5,351.4589 Q21.1875,352.5214 22.5313,352.5214 Q23.1563,352.5214 23.75,352.2558 Q24.3438,351.9745 24.9688,351.3964 L24.9688,354.1152 Z " fill="#000000"/><text fill="#D9B8FF" font-family="Helvetica" font-size="17" lengthAdjust="spacing" textLength="355" x="41" y="354.3598">digitalocean_container_registry_repository</text></g><!--class digitalocean_resource--><g id="elem_digitalocean_resource"><rect codeLine="26" fill="#3D176E" height="39.7891" id="digitalocean_resource" rx="2.5" ry="2.5" style="stroke:#000D19;stroke-width:0.5;" width="223" x="200" y="167.79"/><ellipse cx="215" cy="187.6845" fill="#ADD1B2" rx="11" ry="11" style="stroke:#181818;stroke-width:1.0;"/><path d="M217.9688,193.3252 Q217.3906,193.622 216.75,193.7627 Q216.1094,193.9189 215.4063,193.9189 Q212.9063,193.9189 211.5781,192.2783 Q210.2656,190.622 210.2656,187.497 Q210.2656,184.372 211.5781,182.7158 Q212.9063,181.0595 215.4063,181.0595 Q216.1094,181.0595 216.75,181.2158 Q217.4063,181.372 217.9688,181.6689 L217.9688,184.3877 Q217.3438,183.8095 216.75,183.5439 Q216.1563,183.2627 215.5313,183.2627 Q214.1875,183.2627 213.5,184.3408 Q212.8125,185.4033 212.8125,187.497 Q212.8125,189.5908 213.5,190.6689 Q214.1875,191.7314 215.5313,191.7314 Q216.1563,191.7314 216.75,191.4658 Q217.3438,191.1845 217.9688,190.6064 L217.9688,193.3252 Z " fill="#000000"/><text fill="#D9B8FF" font-family="Helvetica" font-size="17" lengthAdjust="spacing" textLength="181" x="234" y="193.5698">digitalocean_resource</text></g><!--class resource--><g id="elem_resource"><rect codeLine="29" fill="#3D176E" height="39.7891" id="resource" rx="2.5" ry="2.5" style="stroke:#000D19;stroke-width:0.5;" width="113" x="126" y="7"/><ellipse cx="141" cy="26.8945" fill="#ADD1B2" rx="11" ry="11" style="stroke:#181818;stroke-width:1.0;"/><path d="M143.9688,32.5352 Q143.3906,32.832 142.75,32.9727 Q142.1094,33.1289 141.4063,33.1289 Q138.9063,33.1289 137.5781,31.4883 Q136.2656,29.832 136.2656,26.707 Q136.2656,23.582 137.5781,21.9258 Q138.9063,20.2695 141.4063,20.2695 Q142.1094,20.2695 142.75,20.4258 Q143.4063,20.582 143.9688,20.8789 L143.9688,23.5977 Q143.3438,23.0195 142.75,22.7539 Q142.1563,22.4727 141.5313,22.4727 Q140.1875,22.4727 139.5,23.5508 Q138.8125,24.6133 138.8125,26.707 Q138.8125,28.8008 139.5,29.8789 Q140.1875,30.9414 141.5313,30.9414 Q142.1563,30.9414 142.75,30.6758 Q143.3438,30.3945 143.9688,29.8164 L143.9688,32.5352 Z " fill="#000000"/><text fill="#D9B8FF" font-family="Helvetica" font-size="17" lengthAdjust="spacing" textLength="71" x="160" y="32.7798">resource</text></g><!--reverse link digitalocean_resource to digitalocean_container_registry_repository--><g id="link_digitalocean_resource_digitalocean_container_registry_repository"><path codeLine="32" d="M288.7175,222.8116 C268.3475,253.3316 238.73,297.69 218.33,328.25 " fill="none" id="digitalocean_resource-backto-digitalocean_container_registry_repository" style="stroke:#FFAF37;stroke-width:2.0;"/><polygon fill="none" points="298.71,207.84,283.7269,219.4808,293.708,226.1425,298.71,207.84" style="stroke:#FFAF37;stroke-width:2.0;"/></g><!--reverse link resource to digitalocean_container_registry_repository--><g id="link_resource_digitalocean_container_registry_repository"><path codeLine="33" d="M180.6438,65.0706 C179.1138,97.9706 177.74,149.28 182.5,207.58 C186.05,251 195.68,301.26 201.29,328.14 " fill="none" id="resource-backto-digitalocean_container_registry_repository" style="stroke:#FFAF37;stroke-width:2.0;"/><polygon fill="none" points="181.48,47.09,174.6503,64.7918,186.6373,65.3493,181.48,47.09" style="stroke:#FFAF37;stroke-width:2.0;"/></g><!--reverse link resource to digitalocean_resource--><g id="link_resource_digitalocean_resource"><path codeLine="34" d="M209.4086,61.0217 C234.1986,91.5417 271.06,136.9 295.88,167.46 " fill="none" id="resource-backto-digitalocean_resource" style="stroke:#FFAF37;stroke-width:2.0;"/><polygon fill="none" points="198.06,47.05,204.7514,64.8046,214.0658,57.2389,198.06,47.05" style="stroke:#FFAF37;stroke-width:2.0;"/></g><!--SRC=[jP1DRy8m38Rl_HMHE2F1q0P8kp2aQRkWQUoEJEAKY3Qk73FKVVptbJ6cq1RG3hj5VX_7Zxro1XNcXPGgnto979AmThu0XbnDc6axfOnOTQm5EnZMmtloSX6OGOxg0RDN5AUXJhoid5vx345THT4Tw7NAjF5c_xqm-515w2MYfXc4C15Xjzm8HZ9cl1nPMoVhdtO6fZ-ymGP6R91_a5wlP_hZEd9nrDczVucvUqFLZuys8y66PcF4DtNMSaT4aer53_b9noSmnlbKNKUrvxqJU-IZ-dm5XhOxsa8MuZ51a96aB73Qs0h78sE7hV3ZAJZHkzCfur8da956y0jThG6kSbemfYu8bzMZeE24k5JlIVBPriKOQCCQO-2urexVVdIxtJy89F_JUSYIBm00]--></g></svg>

<svg xmlns="http://www.w3.org/2000/svg" width="430" height="374" viewBox="0 0 430 374"><rect width="397" height="39.789" x="7" y="328.58" fill="#3D176E" rx="2.5" ry="2.5" style="stroke:#000d19;stroke-width:.5"/><circle cx="22" cy="348.474" r="11" fill="#ADD1B2" style="stroke:#181818;stroke-width:1"/><path d="M24.969 354.115q-.578.297-1.219.438-.64.156-1.344.156-2.5 0-3.828-1.64-1.312-1.657-1.312-4.782t1.312-4.781q1.328-1.656 3.828-1.656.703 0 1.344.156.656.156 1.219.453v2.719q-.625-.579-1.219-.844-.594-.281-1.219-.281-1.343 0-2.031 1.078-.687 1.062-.687 3.156t.687 3.172q.688 1.062 2.031 1.062.625 0 1.219-.265.594-.281 1.219-.86z"/><text x="41" y="354.36" fill="#D9B8FF" font-family="Helvetica" font-size="17" textLength="355">digitalocean_container_registry_repository</text><rect width="223" height="39.789" x="200" y="167.79" fill="#3D176E" rx="2.5" ry="2.5" style="stroke:#000d19;stroke-width:.5"/><circle cx="215" cy="187.685" r="11" fill="#ADD1B2" style="stroke:#181818;stroke-width:1"/><path d="M217.969 193.325q-.578.297-1.219.438-.64.156-1.344.156-2.5 0-3.828-1.64-1.312-1.657-1.312-4.782t1.312-4.781q1.328-1.656 3.828-1.656.703 0 1.344.156.656.156 1.219.453v2.719q-.625-.578-1.219-.844-.594-.281-1.219-.281-1.344 0-2.031 1.078-.687 1.062-.687 3.156t.687 3.172q.688 1.062 2.031 1.062.625 0 1.219-.265.594-.281 1.219-.86z"/><text x="234" y="193.57" fill="#D9B8FF" font-family="Helvetica" font-size="17" textLength="181">digitalocean_resource</text><rect width="113" height="39.789" x="126" y="7" fill="#3D176E" rx="2.5" ry="2.5" style="stroke:#000d19;stroke-width:.5"/><circle cx="141" cy="26.895" r="11" fill="#ADD1B2" style="stroke:#181818;stroke-width:1"/><path d="M143.969 32.535q-.578.297-1.219.438-.64.156-1.344.156-2.5 0-3.828-1.64-1.312-1.657-1.312-4.782t1.312-4.781q1.328-1.656 3.828-1.656.703 0 1.344.156.656.156 1.219.453v2.719q-.625-.578-1.219-.844-.594-.281-1.219-.281-1.344 0-2.031 1.078-.687 1.062-.687 3.156t.687 3.172q.688 1.062 2.031 1.062.625 0 1.219-.265.594-.281 1.219-.86z"/><text x="160" y="32.78" fill="#D9B8FF" font-family="Helvetica" font-size="17" textLength="71">resource</text><path fill="none" d="M288.718 222.812c-20.37 30.52-49.988 74.878-70.388 105.438m80.38-120.41-14.983 11.64 9.981 6.663z" style="stroke:#ffaf37;stroke-width:2"/><g fill="none"><path d="M180.644 65.07c-1.53 32.9-2.904 84.21 1.856 142.51 3.55 43.42 13.18 93.68 18.79 120.56" style="stroke:#ffaf37;stroke-width:2"/><path d="m181.48 47.09-6.83 17.702 11.987.557z" style="stroke:#ffaf37;stroke-width:2"/></g><path fill="none" d="M209.409 61.022c24.79 30.52 61.651 75.878 86.471 106.438M198.06 47.05l6.691 17.755 9.315-7.566z" style="stroke:#ffaf37;stroke-width:2"/></svg>
